assets/si/si-apollographql.svg

<svg xmlns="http://www.w3.org/2000/svg" width="100%" height="100%" viewBox="-3.36 -3.36 30.72 30.72"><path d="M12 0C5.372 0 0 5.373 0 12c0 6.628 5.372 12 12 12 6.627 0 12-5.372 12-12a12.014 12.014 0 00-.473-3.343.6.6 0 00-1.127.409h-.002c.265.943.402 1.928.402 2.934a10.73 10.73 0 01-3.163 7.637A10.729 10.729 0 0112 22.8a10.73 10.73 0 01-7.637-3.163A10.728 10.728 0 011.2 12a10.73 10.73 0 013.163-7.637A10.728 10.728 0 0112 1.2c2.576 0 5.013.896 6.958 2.54a1.466 1.466 0 10.862-.84A11.953 11.953 0 0012 0zm-1.44 5.88l-4.2 10.902h2.63l.687-1.848h3.969l-.719-2.042h-2.613l1.7-4.691 3.024 8.58h2.631L13.47 5.88z"/></svg>

<svg xmlns="http://www.w3.org/2000/svg" width="100%" height="100%" viewBox="-3.36 -3.36 30.72 30.72"><path d="M12,0C5.372,0 0,5.373 0,12 0,18.628 5.372,24 12,24 18.627,24 24,18.628 24,12A12.014,12.014 0 0 0 23.527,8.657 0.6,0.6 0 0 0 22.4,9.066H22.398C22.663,10.009 22.8,10.994 22.8,12A10.73,10.73 0 0 1 19.637,19.637 10.729,10.729 0 0 1 12,22.8 10.73,10.73 0 0 1 4.363,19.637 10.728,10.728 0 0 1 1.2,12 10.73,10.73 0 0 1 4.363,4.363 10.728,10.728 0 0 1 12,1.2C14.576,1.2 17.013,2.096 18.958,3.74A1.466,1.466 0 1 0 19.82,2.9 11.953,11.953 0 0 0 12,0ZM10.56,5.88 6.36,16.782H8.99L9.677,14.934H13.646L12.927,12.892H10.314L12.014,8.201 15.038,16.781H17.669L13.47,5.88Z"/></svg>
